src/Assets/Icons/HomeScreen/DataManagementComponent/titleIcon4.svg

<svg width="84" height="74" viewBox="0 0 84 74" fill="none" xmlns="http://www.w3.org/2000/svg">
<path d="M31.5001 2.22655C23.5001 0.626548 14.1668 7.89322 10.5001 11.7265C11.8334 10.5404 13.5001 9.27973 9.50009 13.7266C4.50009 19.2851 3.50009 36.2266 4.00009 44.2266C4.50009 52.2266 20.0001 63.7266 33.5001 64.2266C47.0001 64.7266 65.5001 70.2266 76.0001 56.7266C86.5001 43.2266 75.0001 29.7266 71.5001 29.2266C68.0001 28.7266 67.0001 26.7266 59.0001 16.2266C51.0001 5.72656 41.5001 4.22655 31.5001 2.22655Z" fill="#0000FF"/>
<path d="M66.8325 24.0534C62.2477 9.17149 47.7342 -1.3631 31.0295 0.143284C14.2843 1.63956 0.939761 15.5054 0.0491132 32.2677C-0.401271 40.8005 2.27067 48.6914 7.04778 54.8989V71.09C7.04778 73.2333 9.29971 74.6437 11.2278 73.7034L22.376 68.2744H60.937C73.1227 68.2744 83.8408 58.3413 83.9977 46.1689C84.1495 35.4625 76.7865 26.4444 66.8325 24.0534ZM27.9932 45.4258C25.6603 45.4258 23.7727 43.5353 23.7727 41.21C23.7727 38.8847 25.6552 36.9941 27.9932 36.9941C30.3311 36.9941 32.2136 38.8746 32.2136 41.21C32.2136 43.5454 30.321 45.4258 27.9932 45.4258ZM42.0006 45.4258C39.6728 45.4258 37.7802 43.5353 37.7802 41.21C37.7802 38.8847 39.6728 36.9941 42.0006 36.9941C44.3285 36.9941 46.2211 38.8746 46.2211 41.21C46.2211 43.5454 44.3386 45.4258 42.0006 45.4258ZM56.0132 45.4258C53.6803 45.4258 51.7927 43.5353 51.7927 41.21C51.7927 38.8847 53.6752 36.9941 56.0132 36.9941C58.3511 36.9941 60.2336 38.8746 60.2336 41.21C60.2336 43.5454 58.341 45.4258 56.0132 45.4258Z" fill="white"/>
</svg>

<svg xmlns="http://www.w3.org/2000/svg" width="84" height="74" fill="none"><path fill="#00F" d="M31.5 2.227c-8-1.6-17.333 5.666-21 9.5 1.333-1.187 3-2.447-1 2-5 5.558-6 22.5-5.5 30.5s16 19.5 29.5 20 32 6 42.5-7.5-1-27-4.5-27.5-4.5-2.5-12.5-13-17.5-12-27.5-14"/><path fill="#fff" d="M66.833 24.053C62.247 9.171 47.733-1.363 31.03.143 14.284 1.64.94 15.505.05 32.268-.402 40.8 2.27 48.69 7.047 54.898V71.09c0 2.143 2.252 3.554 4.18 2.613l11.148-5.429h38.561c12.186 0 22.904-9.933 23.06-22.105.153-10.706-7.21-19.725-17.165-22.116m-38.84 21.373a4.216 4.216 0 1 1 0-8.432 4.21 4.21 0 0 1 4.22 4.216 4.216 4.216 0 0 1-4.22 4.216m14.008 0a4.22 4.22 0 0 1-4.22-4.216A4.22 4.22 0 0 1 42 36.994c2.328 0 4.22 1.88 4.22 4.216a4.21 4.21 0 0 1-4.22 4.216m14.012 0a4.216 4.216 0 1 1 0-8.432 4.21 4.21 0 0 1 4.22 4.216 4.216 4.216 0 0 1-4.22 4.216"/></svg>
